X: 1
T: Marquis Of Lorne, The
M: 4/4
L: 1/8
R: hornpipe
K: Gmaj
|:ba|gfgd B2ed|cBcA E2AG|FGAB cedc|Bcde d2ba|
gfgd B2ed|cBcA E2AG|FGAB cdef|g2{a}gf g2:|
|:Bc|dBgB dBgB|dBgB d2cB|cafd cafd|cafd c2Bc|
(3dcB gB( 3dcB gB|(3dcB gB d2cB|Aafd ^cdef|g2b2 g2:||
